!!!COM: Bach, Johann Sebastian
!!!OTL: Wenn wir in hoechsten Noeten sein
!!!ONM: No. 68
!!!OCL: Erk
!!!YOE: Riemenschneider, Albert
!!!OPR: 371 Harmonized Chorales and 69 Chorale Melodies with Figured Bass
!!!OPT: Bach Chorale Harmonizations
**kern	**kern	**kern	**kern
! bass	! tenor	! alto	! soprano
*M4/4	*M4/4	*M4/4	*M4/4
*F:	*F:	*F:	*F:
8F	8A	[4c	4f
8E	8G	.	.
=1	=1	=1	=1
4D	4F	8c]	4f
.	.	8Bn	.
8E	8c	[4c	4g
8C	8B-	.	.
4F	8A	8c]	4a
.	8B-	8d	.
4C	4c	4e	8g
.	.	.	8a
=2	=2	=2	=2
8D	8F	8f	4b-
8E	8c	[8g	.
4F	4c	8g]	4a
.	.	[8f	.
4BB-	8d	8f]	4.g
.	8B-	16e	.
.	.	16d	.
4C	8G	4e	.
.	16c	.	8g
.	16B-	.	.
=3	=3	=3	=3
2FF;	2A;	2c;	2f;
4r	4r	4r	4r
8F	4c	[4f	4a
8E-	.	.	.
=4	=4	=4	=4
8D	8d	8f]	4b-
8En	8c	[8g	.
4F	4c	8g]	4a
.	.	[8f	.
8BBn	8d	8f]	4g
8C	[8c	8e	.
4D	8c]	4d	4f
.	8Bn	.	.
=5	=5	=5	=5
8C	4c	4G	4e
8BB-	.	.	.
8AA	4F	4c	4f
8FF	.	.	.
4C;	4E;	4c;	4g;
4AA	4A	8e	4cc
.	.	8f#	.
=6	=6	=6	=6
4GG	8d	8g	4b-
.	8c#	8e	.
8D	4d	8fn	4a
8Cn	.	8e	.
4BBn	4G	[4d	8g
.	.	.	8f
4C	4G	8d]	4e
.	.	[8c	.
=7	=7	=7	=7
4FF	4A	8c]	4f
.	.	16d	.
.	.	16c	.
4GG	8G	4Bn	4d
.	8F	.	.
4C;	4E;	4G;	4c;
4FF	4c	8f	4a
.	.	8e-	.
=8	=8	=8	=8
4GG	4B-	8d	4b-
.	.	8en	.
8AA	[4c	[4f	4a
8BB-	.	.	.
4C	8.c]	8f]	4g
.	.	[8e	.
.	16B-	.	.
4D	8A	8e]	4f
.	8B-	16d	.
.	.	16e	.
=9	=9	=9	=9
8AA	4c	[4f	4a
8BB-	.	.	.
4C	8.c	8f]	4g
.	.	8e	.
.	16B-	.	.
4FF;	4A;	4c;	4f;
==	==	==	==
*-	*-	*-	*-
!!!CDT: 1685/3//-1750/7/28
!!!OCY: Deutschland
!!!AGN: chorale
!!!AST: Baroque
!!!AIN: vox
!!!YOY: 1941
!!!PPP: New York; London
!!!PPR: G. Schirmer
!!!ENC: David Huron
!!!EED: David Huron
!!!YEN: United States of America
!!!YER: 1992
!!!YEC: Copyright 1992 David Huron
!!!YEM: Rights to all derivative electronic formats reserved.
!!!YER: March 20, 1996
!!!AMT: simple quadruple
!!!EEV: 1.1
